static/assets/img/icons/theme/food/wine.svg

<svg height="24" viewBox="0 0 24 24" width="24" xmlns="http://www.w3.org/2000/svg"><g fill="none" fill-rule="evenodd"><path d="m0 0h24v24h-24z" opacity="0"/><g fill="#000"><path d="m12.9999711 21.0076775c1.2768703.0832139 2.4225397.8373441 3.0000289 1.9923225h-8c.57748919-1.1549784 1.72315858-1.9091086 3.0000289-1.9923225-.0000193-.0025569-.0000289-.0051161-.0000289-.0076775v-5.5h2v5.5c0 .0025614-.0000096.0051206-.0000289.0076775z" opacity=".3"/><path d="m8 4-.5 4h9c-.0624406-.79385086-.2291073-2.12718419-.5-4zm.28594472-2h7.42806248c1.233008 0 2.2581422.92839923 2.3527096 2.13070039l.4747964 6.03641801c.2748658 3.4945603-2.3990072 6.5453766-5.9722626 6.8141889-.1655905.0124572-.3316089.0186927-.4976886.0186927h-.1431721c-3.58381151 0-6.48906479-2.8412699-6.48906479-6.3461538 0-.1624221.00637591-.3247842.01911364-.4867278l.47479645-6.03641801c.0945674-1.20230116 1.11970153-2.13070039 2.35270952-2.13070039z" fill-rule="nonzero"/></g></g></svg>

<svg width="24px" height="24px" viewBox="0 0 24 24" version="1.1" xmlns="http://www.w3.org/2000/svg" xmlns:xlink="http://www.w3.org/1999/xlink">
    <title>Icon For Wine</title>
    <g stroke="none" stroke-width="1" fill="none" fill-rule="evenodd">
        <rect opacity="0" x="0" y="0" width="24" height="24"></rect>
        <path d="M12.9999711,21.0076775 C14.2768414,21.0908914 15.4225108,21.8450216 16,23 L8,23 C8.57748919,21.8450216 9.72315858,21.0908914 11.0000289,21.0076775 C11.0000096,21.0051206 11,21.0025614 11,21 L11,15.5 L13,15.5 L13,21 C13,21.0025614 12.9999904,21.0051206 12.9999711,21.0076775 Z" fill="#000000" opacity="0.3"></path>
        <path d="M8,4 L7.5,8 C13.5,8 16.5,8 16.5,8 C16.4375594,7.20614914 16.2708927,5.87281581 16,4 L8,4 Z M8.28594472,2 L15.7140072,2 C16.9470152,2 17.9721494,2.92839923 18.0667168,4.13070039 L18.5415132,10.1671184 C18.816379,13.6616787 16.142506,16.712495 12.5692506,16.9813073 C12.4036601,16.9937645 12.2376417,17 12.071562,17 L11.9283899,17 C8.34457839,17 5.43932511,14.1587301 5.43932511,10.6538462 C5.43932511,10.4914241 5.44570102,10.329062 5.45843875,10.1671184 L5.9332352,4.13070039 C6.0278026,2.92839923 7.05293673,2 8.28594472,2 Z" fill="#000000" fill-rule="nonzero"></path>
    </g>
</svg>
